remix/Document/file-search-line.svg

<svg viewBox="0 0 24 24" fill="currentColor" xmlns="http://www.w3.org/2000/svg"><path d="M15 4H5V20H19V8H15V4ZM3 2.9918C3 2.44405 3.44749 2 3.9985 2H16L20.9997 7L21 20.9925C21 21.5489 20.5551 22 20.0066 22H3.9934C3.44476 22 3 21.5447 3 21.0082V2.9918ZM13.529 14.4464C11.9951 15.3524 9.98633 15.1464 8.66839 13.8284C7.1063 12.2663 7.1063 9.73367 8.66839 8.17157C10.2305 6.60948 12.7631 6.60948 14.3252 8.17157C15.6432 9.48951 15.8492 11.4983 14.9432 13.0322L17.1537 15.2426L15.7395 16.6569L13.529 14.4464ZM12.911 12.4142C13.6921 11.6332 13.6921 10.3668 12.911 9.58579C12.13 8.80474 10.8637 8.80474 10.0826 9.58579C9.30156 10.3668 9.30156 11.6332 10.0826 12.4142C10.8637 13.1953 12.13 13.1953 12.911 12.4142Z"/></svg>

<svg viewBox="0 0 24 24" xmlns="http://www.w3.org/2000/svg"><path fill="none" d="M0 0h24v24H0Z"/><path d="M15 4H5v16h14V8h-4V4ZM3 2.99c0-.55.44-1 .99-1h12l5 5v13.99h0c0 .55-.45 1-1 1 -.01 0-.01 0-.01 0H3.96v0c-.55-.01-.99-.45-1-1V2.96Zm10.529 11.454h0c-1.91 1.11-4.36.47-5.48-1.44 -.92-1.57-.67-3.56.61-4.84v0c1.56-1.57 4.09-1.57 5.65 0 1.28 1.28 1.54 3.28.61 4.85l2.21 2.21 -1.42 1.41 -2.21-2.21Zm-.62-2.032v0c.79-.77.81-2.04.04-2.83 -.77-.8-2.04-.82-2.83-.05 -.02.01-.04.03-.05.04v0c-.77.79-.75 2.06.04 2.82 .77.74 2 .74 2.77 0Z"/></svg>
